src/assets/icons/check.svg

<?xml version="1.0" encoding="UTF-8" standalone="no"?>
<svg
   width="56"
   height="56"
   viewBox="0 0 56 56"
   fill="none"
   version="1.1"
   id="svg2"
   sodipodi:docname="check.svg"
   inkscape:version="1.4 (e7c3feb100, 2024-10-09)"
   xmlns:inkscape="http://www.inkscape.org/namespaces/inkscape"
   xmlns:sodipodi="http://sodipodi.sourceforge.net/DTD/sodipodi-0.dtd"
   xmlns="http://www.w3.org/2000/svg"
   xmlns:svg="http://www.w3.org/2000/svg">
  <sodipodi:namedview
     id="namedview2"
     pagecolor="#ffffff"
     bordercolor="#000000"
     borderopacity="0.25"
     inkscape:showpageshadow="2"
     inkscape:pageopacity="0.0"
     inkscape:pagecheckerboard="0"
     inkscape:deskcolor="#d1d1d1"
     inkscape:zoom="5.0633896"
     inkscape:cx="8.0973425"
     inkscape:cy="24.193279"
     inkscape:window-width="1920"
     inkscape:window-height="1017"
     inkscape:window-x="0"
     inkscape:window-y="0"
     inkscape:window-maximized="1"
     inkscape:current-layer="svg2" />
  <path
     d="M 1.5,28 C 1.5,13.3886 13.3886,1.5 28,1.5 42.6114,1.5 54.5,13.3886 54.5,28 54.5,42.6114 42.6114,54.5 28,54.5 13.3886,54.5 1.5,42.6114 1.5,28 Z"
     stroke="#800080"
     stroke-width="3"
     id="path1"
     style="stroke:#ff8200;stroke-opacity:1" />
  <path
     d="M 42.1916,22.0662 27.0248,37.2325 c -0.455,0.4551 -1.0523,0.6841 -1.6496,0.6841 -0.5972,0 -1.1945,-0.229 -1.6496,-0.6841 l -7.5831,-7.5831 c -0.9126,-0.9122 -0.9126,-2.3871 0,-3.2992 0.9121,-0.9126 2.3866,-0.9126 3.2991,0 l 5.9336,5.9336 13.5173,-13.5168 c 0.9121,-0.9126 2.3865,-0.9126 3.2991,0 0.9122,0.9121 0.9122,2.3866 0,3.2992 z"
     fill="#800080"
     id="path2"
     style="fill:#ff8200;fill-opacity:1" />
  <defs
     id="defs2" />
</svg>

<svg width="56" height="56" viewBox="0 0 56 56" fill="none" xmlns="http://www.w3.org/2000/svg">
<g clip-path="url(#clip0_140_557)">
<path d="M1.5 28C1.5 13.3886 13.3886 1.5 28 1.5C42.6114 1.5 54.5 13.3886 54.5 28C54.5 42.6114 42.6114 54.5 28 54.5C13.3886 54.5 1.5 42.6114 1.5 28Z" stroke="#800080" stroke-width="3"/>
<path d="M42.1916 22.0662L27.0248 37.2325C26.5698 37.6876 25.9725 37.9166 25.3752 37.9166C24.778 37.9166 24.1807 37.6876 23.7256 37.2325L16.1425 29.6494C15.2299 28.7372 15.2299 27.2623 16.1425 26.3502C17.0546 25.4376 18.5291 25.4376 19.4416 26.3502L25.3752 32.2838L38.8925 18.767C39.8046 17.8544 41.279 17.8544 42.1916 18.767C43.1038 19.6791 43.1038 21.1536 42.1916 22.0662Z" fill="#800080"/>
</g>
<defs>
<clipPath id="clip0_140_557">
<rect width="56" height="56" fill="white"/>
</clipPath>
</defs>
</svg>
